packages/blockchain-info-components/src/Images/img/bitpay-logo.svg

<svg fill="none" height="24" viewBox="0 0 68 24" width="68" xmlns="http://www.w3.org/2000/svg"><path d="m67.2273 5.49677h-3.4773l-2.0091 8.51613-.3091 1.1613c-.2318.0774-.3863.0774-.6182.1548-.3863.0775-.6954.0775-1.0818.0775-.4636 0-.7727-.0775-1.0818-.2323-.2318-.1548-.4636-.3097-.5409-.5419-.0773-.2323-.1545-.542-.1545-.8517 0-.3096.0772-.6967.1545-1.0064l1.0818-4.41291.6955-2.94194h-3.5546l-1.6227 6.81295c-.2318.8516-.3091 1.6258-.3091 2.3225 0 .7742.0773 1.3936.3091 1.9355.2318.542.6955 1.0065 1.3136 1.3162.6182.3096 1.4682.4645 2.55.4645.7728 0 1.4682-.0775 2.0091-.2323h.0773c-.1545.6968-.4636 1.2387-1.0045 1.7032-.541.4646-1.2364.6968-2.241.6968-.3863 0-.85 0-1.1591-.0774l-.6954 2.8645c.4636.0774 1.0045.0774 1.5455.0774 1.0818 0 2.009-.1548 2.7818-.3871.7727-.2322 1.4681-.6193 2.0863-1.0838.5409-.4646 1.0819-1.0839 1.4682-1.8581.3864-.7742.6955-1.6258.9273-2.6323l2.3954-10.1419zm-14.6046 7.27743c-.2318.8516-.3091 1.7806-.2318 2.7097.0773.929.4636 2.2451.7727 2.9419h-3.4c-.3863-.6968-.3863-1.0064-.4636-1.2387-.4636.3871-.9273.6194-1.4682.8516-.5409.2323-1.0818.3871-1.7772.3871-.7728 0-1.4682-.1548-2.0091-.3871-.5409-.2322-1.0046-.6193-1.391-1.0839-.3863-.4645-.6181-1.0064-.7727-1.6258-.1545-.6193-.2318-1.2387-.2318-2.0129 0-1.0838.2318-2.0903.5409-3.0193.3864-.92906.9273-1.78067 1.6227-2.47744.6955-.69678 2.3182-2.32259 5.0228-2.32259h5.4091zm-2.4727-4.33549c-1.6227 0-1.9318 0-2.6273.30968-.4636.23226-.85.61935-1.2363 1.08387-.3091.38714-.6182.92904-.85 1.47094-.2318.542-.3091 1.1613-.3091 1.7807 0 .7742.1545 1.3161.3863 1.7806.2319.4645.6955.6194 1.3909.6194.3864 0 .6955-.0774 1.0046-.2323.3091-.1548.6182-.3871.9273-.6968 0-.3871.0772-.7742.1545-1.2387s.1546-.8516.2318-1.1613zm-9.35 2.16779c0 1.1612-.2318 2.1677-.5409 3.1741-.3864.9291-.9273 1.7807-1.5455 2.4775-.6954.6967-1.4681 1.2387-2.3954 1.6258s-1.9318.6193-3.0136.6193c-.541 0-1.0819-.0774-1.6228-.1548l-1.0818 4.2581h-3.4773l4.0182-17.03231h4.6364c.85 0 1.6227.15484 2.2409.3871s1.1591.61936 1.5454 1.08387c.3864.46452.6955 1.00645.9273 1.62581.2318.54193.3091 1.23871.3091 1.93553zm-8.5773 4.8c.2318.0774.6182.0774 1.0046.0774.6182 0 1.1591-.0774 1.7-.3097.4636-.2323.9272-.5419 1.3136-.929s.6182-.9291.85-1.471.3091-1.2387.3091-1.9355-.1545-1.2387-.4636-1.70322c-.3091-.46451-.85-.69677-1.5455-.69677h-1.3909zm-7.2636 0c-.4636 0-.7727-.0775-1.0818-.2323-.2318-.1548-.4637-.3097-.5409-.5419-.0773-.2323-.1546-.542-.1546-.8517 0-.3096.0773-.6967.1546-1.0064l1.0818-4.41291h3.9409l.6954-2.94194h-4.0181l.9272-3.71612-3.7091.61935-2.3181 9.98712c-.2319.8516-.3091 1.6258-.3091 2.3226 0 .7742.0772 1.3935.3091 1.9354.2318.542.6954 1.0065 1.3136 1.3162.6182.3096 1.4682.4645 2.55.4645.7727 0 1.4682-.0774 2.0091-.2323.0773 0 .1545 0 .2318-.0774l.6955-3.0193c-.2319.0774-.4637.1548-.6955.1548-.3864.2323-.6954.2323-1.0818.2323zm-8.8864-9.90973-3.0909 12.92903h3.4773l3.0909-12.92903zm3.7864-1.54838.5409-2.24516h-3.4773l-.5409 2.24516zm-11.51364 1.54838c.77272 0 1.39091.15484 1.93184.3871.5409.23226 1.0045.61936 1.3909 1.08387.3863.46452.6182 1.00645.7727 1.62581.1546.61935.2318 1.23871.2318 1.93545 0 1.0839-.2318 2.0904-.6182 3.0968-.3863.929-.9272 1.7807-1.6227 2.5548-.69543.7742-1.46816 1.2388-2.47271 1.7033-.92727.3871-1.93182.6193-3.01363.6193h-.77273c-.38637 0-.77273 0-1.23637-.0774-.46363-.0774-.92727-.1548-1.46818-.3097-.540907-.1548-1.004544-.3096-1.46818-.5419l4.01818-17.032264 3.63182-.541936-1.46818 6.03871c.30909-.15484.61818-.23226.92727-.30968.54091-.23226.85-.23226 1.23637-.23226zm-3.09091 10.06453c.5409 0 1.08181-.1548 1.54545-.3871s.92727-.6194 1.23637-1.0839c.38636-.4645.61818-.929.84999-1.4709.23182-.542.3091-1.1613.3091-1.7807 0-.7742-.15455-1.31612-.38637-1.78064-.23182-.38709-.77273-.61935-1.46818-.61935-.23182 0-.46364 0-.77273.07742-.38636.07742-.61818.23226-.92727.46452l-1.54546 6.42585c.46364.0774.61819.0774.69546.0774.15455.0774.30909.0774.46364.0774z" fill="#2a3f90"/></svg>

<svg width="68" height="24" viewBox="0 0 68 24" fill="none" xmlns="http://www.w3.org/2000/svg">
<path d="M67.2273 5.49677H63.75L61.7409 14.0129L61.4318 15.1742C61.2 15.2516 61.0455 15.2516 60.8136 15.329C60.4273 15.4065 60.1182 15.4065 59.7318 15.4065C59.2682 15.4065 58.9591 15.329 58.65 15.1742C58.4182 15.0194 58.1864 14.8645 58.1091 14.6323C58.0318 14.4 57.9546 14.0903 57.9546 13.7806C57.9546 13.471 58.0318 13.0839 58.1091 12.7742L59.1909 8.36129L59.8864 5.41935H56.3318L54.7091 12.2323C54.4773 13.0839 54.4 13.8581 54.4 14.5548C54.4 15.329 54.4773 15.9484 54.7091 16.4903C54.9409 17.0323 55.4046 17.4968 56.0227 17.8065C56.6409 18.1161 57.4909 18.271 58.5727 18.271C59.3455 18.271 60.0409 18.1935 60.5818 18.0387H60.6591C60.5046 18.7355 60.1955 19.2774 59.6546 19.7419C59.1136 20.2065 58.4182 20.4387 57.4136 20.4387C57.0273 20.4387 56.5636 20.4387 56.2545 20.3613L55.5591 23.2258C56.0227 23.3032 56.5636 23.3032 57.1046 23.3032C58.1864 23.3032 59.1136 23.1484 59.8864 22.9161C60.6591 22.6839 61.3545 22.2968 61.9727 21.8323C62.5136 21.3677 63.0546 20.7484 63.4409 19.9742C63.8273 19.2 64.1364 18.3484 64.3682 17.3419L66.7636 7.2L67.2273 5.49677ZM52.6227 12.7742C52.3909 13.6258 52.3136 14.5548 52.3909 15.4839C52.4682 16.4129 52.8545 17.729 53.1636 18.4258H49.7636C49.3773 17.729 49.3773 17.4194 49.3 17.1871C48.8364 17.5742 48.3727 17.8065 47.8318 18.0387C47.2909 18.271 46.75 18.4258 46.0546 18.4258C45.2818 18.4258 44.5864 18.271 44.0455 18.0387C43.5046 17.8065 43.0409 17.4194 42.6545 16.9548C42.2682 16.4903 42.0364 15.9484 41.8818 15.329C41.7273 14.7097 41.65 14.0903 41.65 13.3161C41.65 12.2323 41.8818 11.2258 42.1909 10.2968C42.5773 9.36774 43.1182 8.51613 43.8136 7.81936C44.5091 7.12258 46.1318 5.49677 48.8364 5.49677H54.2455L52.6227 12.7742ZM50.15 8.43871C48.5273 8.43871 48.2182 8.43871 47.5227 8.74839C47.0591 8.98065 46.6727 9.36774 46.2864 9.83226C45.9773 10.2194 45.6682 10.7613 45.4364 11.3032C45.2046 11.8452 45.1273 12.4645 45.1273 13.0839C45.1273 13.8581 45.2818 14.4 45.5136 14.8645C45.7455 15.329 46.2091 15.4839 46.9045 15.4839C47.2909 15.4839 47.6 15.4065 47.9091 15.2516C48.2182 15.0968 48.5273 14.8645 48.8364 14.5548C48.8364 14.1677 48.9136 13.7806 48.9909 13.3161C49.0682 12.8516 49.1455 12.4645 49.2227 12.1548L50.15 8.43871ZM40.8 10.6065C40.8 11.7677 40.5682 12.7742 40.2591 13.7806C39.8727 14.7097 39.3318 15.5613 38.7136 16.2581C38.0182 16.9548 37.2455 17.4968 36.3182 17.8839C35.3909 18.271 34.3864 18.5032 33.3046 18.5032C32.7636 18.5032 32.2227 18.4258 31.6818 18.3484L30.6 22.6065H27.1227L31.1409 5.57419H35.7773C36.6273 5.57419 37.4 5.72903 38.0182 5.96129C38.6364 6.19355 39.1773 6.58065 39.5636 7.04516C39.95 7.50968 40.2591 8.05161 40.4909 8.67097C40.7227 9.2129 40.8 9.90968 40.8 10.6065ZM32.2227 15.4065C32.4545 15.4839 32.8409 15.4839 33.2273 15.4839C33.8455 15.4839 34.3864 15.4065 34.9273 15.1742C35.3909 14.9419 35.8545 14.6323 36.2409 14.2452C36.6273 13.8581 36.8591 13.3161 37.0909 12.7742C37.3227 12.2323 37.4 11.5355 37.4 10.8387C37.4 10.1419 37.2455 9.6 36.9364 9.13548C36.6273 8.67097 36.0864 8.43871 35.3909 8.43871H34L32.2227 15.4065ZM24.9591 15.4065C24.4955 15.4065 24.1864 15.329 23.8773 15.1742C23.6455 15.0194 23.4136 14.8645 23.3364 14.6323C23.2591 14.4 23.1818 14.0903 23.1818 13.7806C23.1818 13.471 23.2591 13.0839 23.3364 12.7742L24.4182 8.36129H28.3591L29.0545 5.41935H25.0364L25.9636 1.70323L22.2545 2.32258L19.9364 12.3097C19.7045 13.1613 19.6273 13.9355 19.6273 14.6323C19.6273 15.4065 19.7045 16.0258 19.9364 16.5677C20.1682 17.1097 20.6318 17.5742 21.25 17.8839C21.8682 18.1935 22.7182 18.3484 23.8 18.3484C24.5727 18.3484 25.2682 18.271 25.8091 18.1161C25.8864 18.1161 25.9636 18.1161 26.0409 18.0387L26.7364 15.0194C26.5045 15.0968 26.2727 15.1742 26.0409 15.1742C25.6545 15.4065 25.3455 15.4065 24.9591 15.4065ZM16.0727 5.49677L12.9818 18.4258H16.4591L19.55 5.49677H16.0727ZM19.8591 3.94839L20.4 1.70323H16.9227L16.3818 3.94839H19.8591ZM8.34546 5.49677C9.11818 5.49677 9.73637 5.65161 10.2773 5.88387C10.8182 6.11613 11.2818 6.50323 11.6682 6.96774C12.0545 7.43226 12.2864 7.97419 12.4409 8.59355C12.5955 9.2129 12.6727 9.83226 12.6727 10.529C12.6727 11.6129 12.4409 12.6194 12.0545 13.6258C11.6682 14.5548 11.1273 15.4065 10.4318 16.1806C9.73637 16.9548 8.96364 17.4194 7.95909 17.8839C7.03182 18.271 6.02727 18.5032 4.94546 18.5032H4.17273C3.78636 18.5032 3.4 18.5032 2.93636 18.4258C2.47273 18.3484 2.00909 18.271 1.46818 18.1161C0.927273 17.9613 0.463636 17.8065 0 17.5742L4.01818 0.541936L7.65 0L6.18182 6.03871C6.49091 5.88387 6.8 5.80645 7.10909 5.72903C7.65 5.49677 7.95909 5.49677 8.34546 5.49677ZM5.25455 15.5613C5.79545 15.5613 6.33636 15.4065 6.8 15.1742C7.26364 14.9419 7.72727 14.5548 8.03637 14.0903C8.42273 13.6258 8.65455 13.1613 8.88636 12.6194C9.11818 12.0774 9.19546 11.4581 9.19546 10.8387C9.19546 10.0645 9.04091 9.52258 8.80909 9.05806C8.57727 8.67097 8.03636 8.43871 7.34091 8.43871C7.10909 8.43871 6.87727 8.43871 6.56818 8.51613C6.18182 8.59355 5.95 8.74839 5.64091 8.98065L4.09545 15.4065C4.55909 15.4839 4.71364 15.4839 4.79091 15.4839C4.94546 15.5613 5.1 15.5613 5.25455 15.5613Z" fill="#2A3F90"/>
</svg>
